icons/svg/script.svg

<svg width="24" height="24" viewBox="0 0 24 24" fill="none" xmlns="http://www.w3.org/2000/svg">
<path d="M15.2506 21.25H5.25061H4.00061C2.75797 21.25 1.75061 20.2426 1.75061 19V17.75C1.75061 16.9216 2.42218 16.25 3.25061 16.25H4.75M15.2506 21.25C16.6313 21.25 17.7506 20.1307 17.7506 18.75V7.75M15.2506 21.25C13.8699 21.25 12.75 20.1307 12.75 18.75V17.25C12.75 16.6977 12.3023 16.25 11.75 16.25H4.75M20.1256 2.75H8.25C6.317 2.75 4.75 4.317 4.75 6.25V15.25V16.25M17.7506 7.75H21.2494C21.8017 7.75 22.2494 7.30228 22.2494 6.75V5C22.2494 3.75736 21.242 2.75 19.9994 2.75C18.7567 2.75 17.7494 3.75736 17.7494 5L17.7506 7.75Z" stroke="currentColor" stroke-width="1.5" stroke-linecap="round" stroke-linejoin="round"/>
<path d="M8.5 7.25H14.5M8.5 11.25H12.5" stroke="currentColor" stroke-width="1.5" stroke-linecap="round" stroke-linejoin="round"/>
</svg>

<svg xmlns="http://www.w3.org/2000/svg" width="24" height="24" fill="none" viewBox="0 0 24 24"><path stroke="currentColor" stroke-linecap="round" stroke-linejoin="round" stroke-width="1.5" d="M15.25 21.25H4A2.25 2.25 0 0 1 1.75 19v-1.25a1.5 1.5 0 0 1 1.5-1.5h1.5m10.5 5a2.5 2.5 0 0 0 2.5-2.5v-11m-2.5 13.5a2.5 2.5 0 0 1-2.5-2.5v-1.5a1 1 0 0 0-1-1h-7m15.376-13.5H8.25a3.5 3.5 0 0 0-3.5 3.5v10m13-8.5h3.5a1 1 0 0 0 1-1V5a2.25 2.25 0 0 0-4.5 0zm-9.25-.5h6m-6 4h4"/></svg>
